src/assets/images/icons/icon-vk.svg

<svg fill="none" height="60" viewBox="0 0 60 60" width="60" xmlns="http://www.w3.org/2000/svg"><circle cx="30" cy="30" fill="#3f60a7" r="30"/><path d="m39.1044 34.4806c-.6318.3958-3.2018.5135-3.8238.0615-.3412-.2477-.6532-.558-.9497-.853-.207-.2065-.4425-.3067-.6205-.5307-.145-.1835-.2448-.3998-.398-.5803-.2583-.3037-.6563-.562-.9713-.191-.4737.5578.0748 1.6543-.5572 2.0713-.212.14-.4258.1805-.6905.1605l-.5865.0267c-.3448.0068-.8905.0098-1.2823-.061-.4375-.0787-.7982-.3177-1.1932-.4932-.7505-.3328-1.4658-.7863-2.0098-1.4145-1.4805-1.7108-3.4692-4.0638-4.2417-6.2148-.1593-.442-.5785-1.3167-.1808-1.696.541-.393 3.1973-.5042 3.6113.104.1685.2468.2745.609.3935.8888.148.349.2285.6782.46.9872.205.2743.3565.5498.5152.8505.1783.3373.3463.6608.563.9715.147.2113.5358.631.7813.6625.5995.0768.562-1.3802.5175-1.7362-.0425-.3428-.0538-.7063-.0425-1.054.0097-.2965.0365-.7143-.1393-.9565-.2862-.395-.9237-.0993-.9737-.63.1055-.1508.083-.2845.7865-.516.5537-.1823.9115-.1765 1.2767-.1473.745.0598 1.5348-.142 2.2535.0995.6865.2313.5805 1.207.5575 1.792-.0307.7988.002 1.578 0 2.3883-.001.3692-.0155.728.434.6982.422-.0282.4648-.383.666-.676.2803-.4082.537-.822.8223-1.229.3842-.5497.5-1.1675.8617-1.7307.1295-.2018.2408-.642.44-.8013.151-.1202.4375-.0687.62-.0687h.434c.3325.004.6715.0087 1.0128.0207.4917.017 1.0425-.0897 1.5302-.021 2.104.297-2.6445 4.7978-2.3975 5.6008.171.5545 1.254 1.1757 1.645 1.6302.5213.6045 2.119 1.8093.8763 2.587z" fill="#fff"/></svg>

<svg width="60" height="60" viewBox="0 0 60 60" fill="none" xmlns="http://www.w3.org/2000/svg">
<circle cx="30" cy="30" r="30" fill="#3F60A7"/>
<path d="M39.1044 34.4806C38.4726 34.8764 35.9026 34.9941 35.2806 34.5421C34.9394 34.2944 34.6274 33.9841 34.3309 33.6891C34.1239 33.4826 33.8884 33.3824 33.7104 33.1584C33.5654 32.9749 33.4656 32.7586 33.3124 32.5781C33.0541 32.2744 32.6561 32.0161 32.3411 32.3871C31.8674 32.9449 32.4159 34.0414 31.7839 34.4584C31.5719 34.5984 31.3581 34.6389 31.0934 34.6189L30.5069 34.6456C30.1621 34.6524 29.6164 34.6554 29.2246 34.5846C28.7871 34.5059 28.4264 34.2669 28.0314 34.0914C27.2809 33.7586 26.5656 33.3051 26.0216 32.6769C24.5411 30.9661 22.5524 28.6131 21.7799 26.4621C21.6206 26.0201 21.2014 25.1454 21.5991 24.7661C22.1401 24.3731 24.7964 24.2619 25.2104 24.8701C25.3789 25.1169 25.4849 25.4791 25.6039 25.7589C25.7519 26.1079 25.8324 26.4371 26.0639 26.7461C26.2689 27.0204 26.4204 27.2959 26.5791 27.5966C26.7574 27.9339 26.9254 28.2574 27.1421 28.5681C27.2891 28.7794 27.6779 29.1991 27.9234 29.2306C28.5229 29.3074 28.4854 27.8504 28.4409 27.4944C28.3984 27.1516 28.3871 26.7881 28.3984 26.4404C28.4081 26.1439 28.4349 25.7261 28.2591 25.4839C27.9729 25.0889 27.3354 25.3846 27.2854 24.8539C27.3909 24.7031 27.3684 24.5694 28.0719 24.3379C28.6256 24.1556 28.9834 24.1614 29.3486 24.1906C30.0936 24.2504 30.8834 24.0486 31.6021 24.2901C32.2886 24.5214 32.1826 25.4971 32.1596 26.0821C32.1289 26.8809 32.1616 27.6601 32.1596 28.4704C32.1586 28.8396 32.1441 29.1984 32.5936 29.1686C33.0156 29.1404 33.0584 28.7856 33.2596 28.4926C33.5399 28.0844 33.7966 27.6706 34.0819 27.2636C34.4661 26.7139 34.5819 26.0961 34.9436 25.5329C35.0731 25.3311 35.1844 24.8909 35.3836 24.7316C35.5346 24.6114 35.8211 24.6629 36.0036 24.6629H36.4376C36.7701 24.6669 37.1091 24.6716 37.4504 24.6836C37.9421 24.7006 38.4929 24.5939 38.9806 24.6626C41.0846 24.9596 36.3361 29.4604 36.5831 30.2634C36.7541 30.8179 37.8371 31.4391 38.2281 31.8936C38.7494 32.4981 40.3471 33.7029 39.1044 34.4806Z" fill="white"/>
</svg>
